X:1
T:Title
L:1/8
Q:1/4=100
M:4/4
I:linebreak $
K:Ab
V:1 treble nm="Grand Piano"
V:1
 F2 F2 A2 A2 | BBAG F3 G | A3 A GFEG | F8 | F2 FF A2 A2 | BBAG F3 c | c3 d cBAG | F8 |$ c4 c4 | %9
 d4 c4 | c3 c cBAB | c8 | c4 c4 | d4 c3 c | c3 d cBAG | F8 |] %16
